picto/cleaning-room-framed.svg

<svg class="color-immutable" width="30" height="30" viewBox="0 0 30 30" fill="none" xmlns="http://www.w3.org/2000/svg"><path d="M30 0H0V30H30V0Z" fill="#2D327D"/><path d="M25.5 3C26.325 3 27 3.675 27 4.5V25.5C27 26.325 26.325 27 25.5 27H4.5C3.675 27 3 26.325 3 25.5V4.5C3 3.675 3.675 3 4.5 3H25.5ZM25.5 2.625H4.5C3.46613 2.625 2.625 3.46613 2.625 4.5V25.5C2.625 26.5339 3.46613 27.375 4.5 27.375H25.5C26.5339 27.375 27.375 26.5339 27.375 25.5V4.5C27.375 3.46613 26.5339 2.625 25.5 2.625Z" fill="white"/><path d="M18.8145 15L20.1103 16.8141C20.351 17.1512 20.273 17.6196 19.9359 17.8604C19.8038 17.9547 19.6515 18.0001 19.5006 18.0001C19.2666 18.0001 19.0361 17.8909 18.8897 17.686L16.9711 15H15L16.3955 23.3733C16.4558 23.735 16.7687 24 17.1353 24H21.8646C22.2312 24 22.5441 23.735 22.6044 23.3733L24 15H18.8145Z" fill="white"/><path d="M19.5003 17.625C19.3833 17.625 19.2681 17.5704 19.1949 17.468L15.4449 12.218C15.3245 12.0494 15.3636 11.8152 15.5321 11.6948C15.7007 11.5745 15.9348 11.6135 16.0552 11.7821L19.8052 17.0321C19.9256 17.2006 19.8865 17.4348 19.718 17.5552C19.6519 17.6024 19.5758 17.625 19.5003 17.625Z" fill="white"/><path d="M18.5466 14.625H23.6163C23.568 14.2459 23.2912 13.9183 22.8974 13.8254C22.6936 13.7775 22.4905 13.7999 22.3116 13.8764C22.2369 13.4695 21.881 13.1602 21.4517 13.1602C21.4214 13.1602 21.3904 13.162 21.3607 13.1651C21.2485 12.7727 20.9338 12.4507 20.5081 12.35C19.8817 12.2027 19.254 12.5908 19.1061 13.2172C19.0964 13.2602 19.0897 13.3033 19.0848 13.3457C19.0284 13.3361 18.9708 13.33 18.912 13.33C18.5196 13.33 18.1817 13.5596 18.0225 13.8913L18.5466 14.625Z" fill="white"/><path d="M22.5348 12.2489C22.9375 12.2489 23.264 11.9225 23.264 11.5198C23.264 11.1171 22.9375 10.7906 22.5348 10.7906C22.1321 10.7906 21.8057 11.1171 21.8057 11.5198C21.8057 11.9225 22.1321 12.2489 22.5348 12.2489Z" fill="white"/><path d="M20.3488 9.70201C20.7515 9.70201 21.0779 9.37556 21.0779 8.97286C21.0779 8.57016 20.7515 8.24371 20.3488 8.24371C19.9461 8.24371 19.6196 8.57016 19.6196 8.97286C19.6196 9.37556 19.9461 9.70201 20.3488 9.70201Z" fill="white"/><path d="M21.9252 7.4583C22.3279 7.4583 22.6543 7.13185 22.6543 6.72915C22.6543 6.32645 22.3279 6 21.9252 6C21.5225 6 21.196 6.32645 21.196 6.72915C21.196 7.13185 21.5225 7.4583 21.9252 7.4583Z" fill="white"/><path d="M7.65615 23.0393C7.66898 22.9365 7.76288 22.8638 7.86548 22.8765C7.96823 22.8893 8.04113 22.983 8.02822 23.0858L7.91392 24H9.5625V23.0625C9.5625 22.9589 9.64643 22.875 9.75 22.875C9.85358 22.875 9.9375 22.9589 9.9375 23.0625V24H11.5861L11.4718 23.0858C11.459 22.983 11.5318 22.8893 11.6345 22.8764C11.7373 22.8638 11.831 22.9365 11.8439 23.0392L11.9639 23.9999H13.5L13.0313 22.1249H6.46875L6 24H7.53608L7.65615 23.0393Z" fill="white"/><path d="M12.9375 21.75L12.8921 21.5681C12.8086 21.2342 12.5086 21 12.1645 21H7.3356C6.99142 21 6.69143 21.2342 6.60803 21.5681L6.5625 21.75H12.9375Z" fill="white"/><path d="M10.1736 20.625H9.42358V6.375C9.42358 6.16793 9.59151 6 9.79858 6C10.0057 6 10.1736 6.16793 10.1736 6.375V20.625Z" fill="white"/></svg>

<svg class="color-immutable" width="30" height="30" viewBox="0 0 30 30" fill="none" xmlns="http://www.w3.org/2000/svg"><g clip-path="url(#a)"><path d="M30 0H0v30h30V0Z" fill="#2D327D"/><path d="M25.5 3c.825 0 1.5.675 1.5 1.5v21c0 .825-.675 1.5-1.5 1.5h-21c-.825 0-1.5-.675-1.5-1.5v-21C3 3.675 3.675 3 4.5 3h21Zm0-.375h-21A1.877 1.877 0 0 0 2.625 4.5v21c0 1.034.841 1.875 1.875 1.875h21a1.877 1.877 0 0 0 1.875-1.875v-21A1.877 1.877 0 0 0 25.5 2.625Z" fill="#fff"/><path d="m18.814 15 1.296 1.814a.75.75 0 0 1-1.22.872L16.97 15H15l1.395 8.373a.75.75 0 0 0 .74.627h4.73a.75.75 0 0 0 .74-.627L24 15h-5.186Z" fill="#fff"/><path d="M19.5 17.625a.375.375 0 0 1-.305-.157l-3.75-5.25a.375.375 0 0 1 .61-.436l3.75 5.25a.375.375 0 0 1-.305.593ZM18.547 14.625h5.07a.944.944 0 0 0-1.305-.749.875.875 0 0 0-.951-.71 1.165 1.165 0 0 0-2.276.18.986.986 0 0 0-1.062.546l.524.733ZM22.535 12.249a.73.73 0 1 0 0-1.458.73.73 0 0 0 0 1.458ZM20.349 9.702a.73.73 0 1 0 0-1.458.73.73 0 0 0 0 1.458ZM21.925 7.458a.73.73 0 1 0 0-1.458.73.73 0 0 0 0 1.458ZM7.656 23.04a.188.188 0 0 1 .372.046L7.914 24h1.649v-.938a.187.187 0 1 1 .374 0V24h1.65l-.115-.914a.188.188 0 0 1 .372-.047l.12.96H13.5l-.469-1.874H6.47L6 24h1.536l.12-.96ZM12.938 21.75l-.046-.182a.75.75 0 0 0-.727-.568h-4.83a.75.75 0 0 0-.727.568l-.045.182h6.375ZM10.174 20.625h-.75V6.375a.375.375 0 0 1 .75 0v14.25Z" fill="#fff"/></g><defs><clipPath id="a"><path fill="#fff" d="M0 0h30v30H0z"/></clipPath></defs></svg>
